Numix-GalliumOS/64/mimetypes/application-x-blender.svg

<svg xmlns="http://www.w3.org/2000/svg" xmlns:xlink="http://www.w3.org/1999/xlink" width="64px" height="64px" viewBox="0 0 64 64" version="1.1">
<g id="surface1">
<path style=" stroke:none;fill-rule:nonzero;fill:rgb(80.784314%,35.686275%,0%);fill-opacity:1;" d="M 10.671875 0 C 9.296875 0 8 1.355469 8 2.789062 L 8 61.210938 C 8 62.566406 9.375 64 10.671875 64 L 53.328125 64 C 54.625 64 56 62.566406 56 61.210938 L 56 18 L 38 0 Z M 10.671875 0 "/>
<path style=" stroke:none;fill-rule:nonzero;fill:rgb(0%,0%,0%);fill-opacity:0.196078;" d="M 42 18 L 56 32 L 56 18 Z M 42 18 "/>
<path style=" stroke:none;fill-rule:nonzero;fill:rgb(100%,100%,100%);fill-opacity:0.392157;" d="M 38 0 L 55.984375 18 L 40.757812 18 C 39.410156 18 38 16.574219 38 15.226562 Z M 38 0 "/>
<path style=" stroke:none;fill-rule:evenodd;fill:rgb(100%,100%,100%);fill-opacity:1;" d="M 31.46875 21.578125 C 30.96875 21.578125 30.449219 21.765625 30.027344 22.089844 C 29.597656 22.421875 29.320312 22.851562 29.285156 23.371094 C 29.25 23.878906 29.445312 24.398438 29.839844 24.757812 L 29.839844 24.792969 C 30.761719 25.589844 31.71875 26.414062 32.652344 27.230469 L 22.226562 27.230469 C 21.484375 27.230469 20.855469 27.398438 20.371094 27.785156 C 19.898438 28.160156 19.585938 28.726562 19.484375 29.351562 C 19.289062 30.578125 20.167969 31.976562 21.589844 31.976562 L 26.140625 31.976562 L 16.636719 39.714844 C 16.636719 39.714844 16.628906 39.695312 16.601562 39.714844 C 16.019531 40.207031 15.609375 40.878906 15.457031 41.578125 C 15.304688 42.265625 15.375 43 15.789062 43.582031 C 16.628906 44.765625 18.3125 44.730469 19.484375 43.691406 L 24.476562 39.203125 C 24.484375 39.722656 24.609375 40.546875 24.816406 41.246094 C 25.21875 42.679688 25.917969 44.023438 26.882812 45.1875 C 27.871094 46.386719 29.070312 47.355469 30.464844 48.035156 C 31.933594 48.75 33.519531 49.09375 35.167969 49.09375 C 36.816406 49.09375 38.394531 48.714844 39.863281 48 C 41.257812 47.308594 42.503906 46.351562 43.488281 45.152344 C 44.445312 43.976562 45.109375 42.644531 45.523438 41.210938 C 45.726562 40.484375 45.871094 39.722656 45.925781 38.980469 C 45.980469 38.253906 45.953125 37.519531 45.851562 36.796875 C 45.675781 35.371094 45.246094 34.027344 44.554688 32.820312 C 44.015625 31.871094 43.308594 31.035156 42.523438 30.300781 L 42.558594 30.265625 L 42.15625 29.933594 L 32.910156 22.125 C 32.910156 22.125 32.875 22.097656 32.875 22.089844 C 32.867188 22.089844 32.839844 22.089844 32.839844 22.089844 C 32.4375 21.757812 31.960938 21.578125 31.46875 21.578125 Z M 35.050781 29.792969 C 39.835938 29.792969 43.703125 33.617188 43.703125 38.328125 C 43.703125 43.046875 39.835938 46.871094 35.050781 46.871094 C 30.277344 46.871094 26.402344 43.046875 26.402344 38.328125 C 26.402344 33.617188 30.277344 29.792969 35.050781 29.792969 Z M 35.050781 29.792969 "/>
<path style=" stroke:none;fill-rule:nonzero;fill:rgb(100%,100%,100%);fill-opacity:1;" d="M 37.542969 38.398438 C 37.542969 39.8125 36.386719 40.960938 34.953125 40.960938 C 33.53125 40.960938 32.367188 39.8125 32.367188 38.398438 C 32.367188 36.992188 33.53125 35.847656 34.953125 35.847656 C 36.386719 35.847656 37.542969 36.992188 37.542969 38.398438 Z M 37.542969 38.398438 "/>
</g>
</svg>

<svg xmlns="http://www.w3.org/2000/svg" viewBox="0 0 64 64">
 <g>
  <path d="m 10.672 0 c -1.375 0 -2.672 1.355 -2.672 2.789 l 0 58.42 c 0 1.355 1.375 2.789 2.672 2.789 l 42.656 0 c 1.297 0 2.672 -1.434 2.672 -2.789 l 0 -43.21 l -18 -18 m -27.328 0" style="fill:#ce5b00;fill-opacity:1;stroke:none;fill-rule:nonzero"/>
  <path d="m 42 18 l 14 14 l 0 -14 m -14 0" style="fill:#000;fill-opacity:0.196;stroke:none;fill-rule:nonzero"/>
  <path d="m 38 0 l 17.984 18 l -15.227 0 c -1.348 0 -2.758 -1.426 -2.758 -2.773 m 0 -15.227" style="fill:#fff;fill-opacity:0.392;stroke:none;fill-rule:nonzero"/>
  <path d="m 31.469 21.578 c -0.5 0 -1.02 0.188 -1.441 0.512 c -0.43 0.332 -0.707 0.762 -0.742 1.281 c -0.035 0.508 0.16 1.027 0.555 1.387 l 0 0.035 c 0.922 0.797 1.879 1.621 2.813 2.438 l -10.426 0 c -0.742 0 -1.371 0.168 -1.855 0.555 c -0.473 0.375 -0.785 0.941 -0.887 1.566 c -0.195 1.227 0.684 2.625 2.105 2.625 l 4.551 0 l -9.504 7.738 c 0 0 -0.008 -0.02 -0.035 0 c -0.582 0.492 -0.992 1.164 -1.145 1.863 c -0.152 0.688 -0.082 1.422 0.332 2 c 0.84 1.184 2.523 1.148 3.695 0.109 l 4.992 -4.488 c 0.008 0.52 0.133 1.344 0.34 2.043 c 0.402 1.434 1.102 2.777 2.066 3.941 c 0.988 1.199 2.188 2.168 3.582 2.848 c 1.469 0.715 3.055 1.059 4.703 1.059 c 1.648 0 3.227 -0.379 4.695 -1.094 c 1.395 -0.691 2.641 -1.648 3.625 -2.848 c 0.957 -1.176 1.621 -2.508 2.035 -3.941 c 0.203 -0.727 0.348 -1.488 0.402 -2.23 c 0.055 -0.727 0.027 -1.461 -0.074 -2.184 c -0.176 -1.426 -0.605 -2.77 -1.297 -3.977 c -0.539 -0.949 -1.246 -1.785 -2.031 -2.52 l 0.035 -0.035 l -0.402 -0.332 l -9.246 -7.809 c 0 0 -0.035 -0.027 -0.035 -0.035 c -0.008 0 -0.035 0 -0.035 0 c -0.402 -0.332 -0.879 -0.512 -1.371 -0.512 m 3.582 8.215 c 4.785 0 8.652 3.824 8.652 8.535 c 0 4.719 -3.867 8.543 -8.652 8.543 c -4.773 0 -8.648 -3.824 -8.648 -8.543 c 0 -4.711 3.875 -8.535 8.648 -8.535 m 0 0" style="fill:#fff;fill-opacity:1;stroke:none;fill-rule:evenodd"/>
  <path d="m 37.543 38.4 c 0 1.414 -1.156 2.563 -2.59 2.563 c -1.422 0 -2.586 -1.148 -2.586 -2.563 c 0 -1.406 1.164 -2.551 2.586 -2.551 c 1.434 0 2.59 1.145 2.59 2.551 m 0 0" style="fill:#fff;fill-opacity:1;stroke:none;fill-rule:nonzero"/>
 </g>
</svg>
